X:1
T:Coming Through the Canebrake (To Shoot The Buffalo)
M: C|
L: 1/8
R: reel
K:D
|: "D"A2d2 f4 | "G"g2B2 B4 | "A"ABcd e2c2 | "D"defg a2A2 |
   "D"A2d2 f4 | "G"g2B2 B4 | "A"ABcd e2c2 |\
  [1 "D"d4 d4 :|[2 "D"d4 d2(3efg ||
|: "D"a2a2 a2ag | f2f2 f4 | "A"e2ef g2e2 | "D"defg a2(3efg |
   "D"a2a2 a2ag | f2f2 f4 | "A"e2ef g2e2 |\
  [1 "D"d4 d2(3efg :|[2 "D"d4 d4 |]
N:www.youtube.com/watchv=ceUIkamnEUo
N:("Coming Through the Canebreak" played by Mel Durham) 4/07
N:Transcription/abc by Peter Ostapenko 4/9/2007
